X: 5
T:Dancla 2
C:
N:Transcribed by Becky Smith
L:1/8
Q:1/4=120
M:4/4
K:C
|: c/e/d/B/ c/e/d/B/ c/e/d/B/ c/B/A/E/ | F/A/G/E/ F/A/G/E/ F/A/G/E/ F/E/D/C/ | 
B,/D/C/A,/ B,/D/C/A,/ B,/D/C/A,/ B,/D/C/A,/ | G,/A,/B,/C/ D/B,/A,/G,/ C/D/E/F/ G/A/B/c/ | 
d/e/c/d/ B/c/A/B/ G/A/F/G/ E/A/D/E/ | C/G,/D/B,/ C/G,/D/B,/ C/E/G/B/ c/e/d/B/ :| c8 | 
|: C/D/B,/D/ C/D/B,/D/ C/D/B,/D/ C/D/B,/D/ | C/D/B,/D/ C/D/B,/D/ C/D/B,/D/ C/D/E/^F/ | 
G/A/^F/A/ G/A/F/A/ G/A/F/A/ G/A/F/A/ | G/A/^F/A/ G/A/F/A/ G/A/=F/G/ E/F/D/E/ | 
C/D/B,/D/ C/D/B,/D/ C/D/B,/D/ C/D/B,/D/ | C/D/B,/D/ C/D/B,/D/ C/D/B,/D/ C/D/B,/D/ :| C8 | 
|: G,/B,/D/C/ B,/D/C/A,/ G,/B,/D/C/ B,/D/C/A,/ | G,/B,/A,/C/ B,/D/C/E/ D/F/E/G/ F/A/G/B/ | 
A/c/e/d/ c/e/d/B/ A/c/e/d/ c/e/d/B/ | A/c/e/d/ c/d/B/c/ A/B/G/A/ F/G/E/F/ | D/F/A/G/ F/A/G/E/ D/F/A/G/ F/A/G/E/ | 
D/F/A/G/ F/G/E/F/ D/E/C/D/ B,/C/A,/B,/ :| G,8 |: C/E/D/F/ E/G/F/A/ G/A/F/G/ E/F/D/E/ | 
G/E/D/F/ E/G/F/A/ G/A/F/G/ E/F/D/E/ | C/E/D/F/ E/G/F/A/ G/B/A/c/ B/d/c/e/ | d/f/e/g/ f/d/e/c/ d/B/c/A/ B/G/A/F/ | 
G/A/G/A/ F/G/F/G/ E/F/E/F/ D/E/D/E/ | C/D/C/D/ C/D/C/D/ C/D/C/D/ C/D/C/D/ :| C8 | 
|: G/B/A/c/ B/d/c/e/ d/e/c/d/ B/c/A/B/ | G/B/A/c/ B/d/c/e/ d/e/c/d/ B/c/A/B/ | 
G/B/A/c/ B/d/c/e/ d/^f/e/g/ f/a/g/b/ | a/c'/b/d'/ c'/a/b/g/ a/^f/g/e/ f/d/e/c/ | 
d/e/d/e/ c/d/c/d/ B/c/B/c/ A/B/A/B/ | G/A/G/A/ G/A/G/A/ G/A/G/A/ G/A/G/A/ :| G8 | 
|: d/e/^c/e/ d/e/c/e/ d/e/c/e/ d/e/d/B/ | c/d/B/d/ c/d/B/d/ c/d/B/d/ c/d/c/A/ | 
B/c/A/c/ B/c/A/c/ B/c/A/c/ B/c/A/B/ | G/A/^F/A/ G/A/F/A/ G/A/F/A/ G/A/F/A/ | G/A/^F/A/ G/A/F/A/ G/A/G/A/ F/G/E/F/ | 
D/^F/E/F/ D/F/E/F/ D/E/F/G/ A/B/c/^c/ :| d8 |

